!!!OTL: FRISCH AUF SOLDATENBLUT
!!!ARE: Europa, Mitteleuropa, Deutschland, Sachsen
!!!SCT: E1354A
!!!YEM: Copyright 1995, estate of Helmut Schaffrath.
**kern
*ICvox
*Ivox
*M4/4
*k[b-e-]
*B-:
=1
{2b-
4a
4g
=2
4f
8.f
16e-
2d}
=3
{4f
4dd
4dd
4dd
=4
4cc
4cc
8b-
8f
8d
8f}
=5
{2b-
4a
4g
=6
4f
8.f
16e-
2d}
=7
{4f
4dd
4dd
4dd
=8
4cc
4cc
4b-
8r}
{8b-
=9
4b-
4dd
4ff
4dd
=10
4dd
4cc
4cc}
{4dd
=11
4cc
4b-
4b-
4cc
=12
4b-
4a
4a
4r}
=13
{2g
4b-
4g
=14
8.f
16g
8.f
16e-
2d}
=15
{4f
4dd
4dd
4dd
=16
4cc
4cc
2b-}
==
!!!AGN: Staende -, Soldaten -, Kriegs - Lied
!!!ONB: ESAC (Essen Associative Code) Database: ERK3
!!!AMT: simple quadruple
!!!AIN: vox
!!!EED: Helmut Schaffrath
!!!EEV: 1.0
*-
